X:27
T:Brewers Daughter. Le4.027, The
T:Kenmore's Awa',aka
T:Hexham Races,aka
B:L.Leadley MS#4 c1850
Z:Village Music Project, 2016 Steve Mansfield
M:6/8
L:1/8
Q:3/8=110
K:G
D | GBd gdB | ded d2B | GBd gdB | AAA A2B |
GBd gdB | def g2e | d2B dBA | GGG G2 :|
|: b | g2d edB | ded d2b | g2d edB | AAA A2b |
g2d edB | def g2e | d2B dcB | GGG G2 :|

